!! 00000] TT[00
!! NN
!!!OTL: Song wo biaomei yizhi hua
!!!ARE: Asia, China,ÿJiangxi, Yudu
!! Ethnic Group: Han
!! IV, 243
!!!SCT: C0412
!!!YEM: Copyright 1995, estate of Helmut Schaffrath.
**kern
*ICvox
*Ivox
*M2/4
*k[]
*C:
{8gg
8ee
8ee
8dd
=1
8gg
4gg
8r}
=2
{16cc
16cc
16cc
16dd
8gg
8ee
=3
4.dd
16g
16g}
=4
{16a
16cc
4cc
16a
16a
=5
8g
4e
8r}
=6
{16a
16cc
16g
16a
16cc
16cc
16g
16a
=7
2g}
=8
{8a
8a
8gg
16ee
16gg
=9
8dd
8cc
4a}
=10
{8g
16g
16a
8cc
16a
16g
=11
8g
4e
8r}
=12
{8cc
[8cc
16cc]
16dd
16b
16a
=13
8g
4e
8r}
=14
{16cc
16cc
16cc
16dd
8gg
8ee
=15
2dd}
=16
{8a
16a
16cc
16g
16e
16g
16a
=17
2cc}
=18
{8cc
16cc
16dd
8gg
16ee
16gg
=19
8dd
4dd
8b}
=20
{16a
16cc
16g
16a
16cc
32dd
32cc
16g
16a
=21
2g}
==
!!!AGN: Wuge, Dengge, changge. Biaoda aiqing
!! Mehrere Verzierungen.
!!!ONB: ESAC (Essen Associative Code) Database: CHINA
!!!AMT: simple duple
!!!AIN: vox
!!!EED: Helmut Schaffrath
!!!EEV: 1.0
*-
